resources/haticons/SVG/hootsuite1.svg

<!-- Generated by IcoMoon.io -->
<svg version="1.1" xmlns="http://www.w3.org/2000/svg" width="24" height="24" viewBox="0 0 24 24">
<title>hootsuite1</title>
<path d="M12.002 0h0.023c1.311 0.004 2.603 0.322 3.766 0.928 1.157-0.596 2.439-0.906 3.741-0.906h0.676v23.978l-0.656-0.002c-4.183 0.002-8.196-1.662-11.152-4.625-2.97-2.943-4.63-6.959-4.609-11.143v-8.209h0.677c1.301 0 2.586 0.311 3.741 0.906 1.172-0.609 2.473-0.927 3.793-0.927zM12.002 0.654c-1.381 0-2.676 0.373-3.791 1.021-1.138-0.655-2.428-1.001-3.742-1h-0.022v7.555c-0.025 8.35 6.764 15.090 15.107 15.113v-22.668h-0.022c-1.313-0.001-2.604 0.343-3.743 0.999-1.144-0.666-2.443-1.018-3.766-1.020zM15.254 3.408c1.79 0.002 3.238 1.453 3.237 3.242-0.003 1.791-1.454 3.238-3.244 3.236-0.616 0-1.22-0.176-1.739-0.508l-1.516 1.508-1.507-1.516c-1.514 0.952-3.515 0.495-4.465-1.020-0.952-1.516-0.495-3.516 1.021-4.467s3.516-0.494 4.467 1.022c0.273 0.437 0.44 0.933 0.483 1.446l0.016-0.020 0.015 0.018c0.154-1.667 1.556-2.945 3.232-2.941zM8.76 8.789c1.192 0.006 2.163-0.959 2.168-2.15 0.001-0.219-0.031-0.436-0.096-0.644-0.243 0.544-0.882 0.788-1.426 0.546-0.545-0.244-0.79-0.883-0.546-1.428 0.109-0.243 0.304-0.437 0.548-0.547-1.137-0.355-2.347 0.276-2.705 1.414-0.066 0.207-0.099 0.424-0.1 0.642-0.003 1.192 0.96 2.163 2.153 2.167zM15.238 8.808c1.193 0.003 2.163-0.962 2.166-2.155s-0.963-2.162-2.155-2.164c-0.216-0.002-0.431 0.030-0.638 0.094 0.545 0.244 0.789 0.883 0.547 1.428-0.244 0.543-0.883 0.787-1.428 0.545-0.245-0.109-0.439-0.307-0.549-0.553-0.355 1.139 0.279 2.352 1.417 2.707 0.209 0.063 0.423 0.097 0.64 0.098z"></path>
</svg>

<svg xmlns="http://www.w3.org/2000/svg" width="24" height="24"><path d="M12.002 0h.023a8.205 8.205 0 0 1 3.766.928 8.166 8.166 0 0 1 3.741-.906h.676V24l-.656-.002A15.743 15.743 0 0 1 8.4 19.373 15.575 15.575 0 0 1 3.791 8.23V.021h.677c1.301 0 2.586.311 3.741.906A8.226 8.226 0 0 1 12.002 0zm0 .654a7.522 7.522 0 0 0-3.791 1.021 7.49 7.49 0 0 0-3.742-1h-.022V8.23c-.025 8.35 6.764 15.09 15.107 15.113V.675h-.022a7.488 7.488 0 0 0-3.743.999 7.508 7.508 0 0 0-3.766-1.02zm3.252 2.754a3.24 3.24 0 1 1-1.746 5.97l-1.516 1.508-1.507-1.516a3.239 3.239 0 1 1 1.506-3.019l.016-.02.015.018a3.24 3.24 0 0 1 3.232-2.941zM8.76 8.789a2.16 2.16 0 0 0 2.072-2.794 1.081 1.081 0 0 1-1.972-.882 1.09 1.09 0 0 1 .548-.547 2.16 2.16 0 1 0-.652 4.223zm6.478.019a2.16 2.16 0 1 0-.627-4.225c.545.244.789.883.547 1.428a1.084 1.084 0 0 1-1.428.545 1.088 1.088 0 0 1-.549-.553 2.162 2.162 0 0 0 2.057 2.805z"/></svg>
